public/img/expIcons/css.svg

<svg xmlns="http://www.w3.org/2000/svg" viewBox="0 0 500 500">
  <circle cx="220" cy="220" r="200" fill="#fff"/>
  <path fill="#379ad6" d="M249 .8h-13c-19.66.23-50.44 7.45-69 14.25C96.86 40.77 45.53 90.68 17.8 160 9.39 181.02 1.04 213.4.86 236v28c.17 19.65 7.2 49.39 13.83 68C39.87 402.68 90.54 454.34 160 482.2c20.79 8.34 52.63 16.53 75 16.8h28c28.9-.05 68.18-11.43 94-24.25 32.17-15.97 48.46-27.46 73.42-53.58L443.58 407c17.55-21.42 30.66-46.23 40.61-72 7.12-18.44 14.58-50.31 14.81-70 .23-20.06.44-38.13-3.26-58C483.7 142.33 447.61 84.74 394 46.43c-8.88-6.35-22.15-13.75-32-18.68C324.48 8.99 290.85.93 249 .8zM220 98v17h-18v11h18v15h-28c-6.06-.12-6.88-.94-7-7V98h35zm48 17h-11l7.85 8c1.14 1.34 1.93 2.32 2.55 4 .93 2.51 1.26 11.19-1 12.98-1.34 1.06-3.78.99-5.4 1.02h-28v-15h11l-11.09-10.09L233 98h28l7.18.09L268 115zm47.49-16.87v17h-11l7.85 8c1.14 1.35 2.93 2.78 3.55 4.46-1.31 3.18.24 11-1 12.98-1.34 1.05-4.78.53-6.4.56h-28v-15h12l-12.09-10.72.09-17.28h35zM358 158l-4.83 57-10.34 112-3 31-1.83 20-61 16.42-27 6.5-27-6.5L162 378l-1.83-19-3-32-10.34-112-3-32-1.83-25h216zm-175 46l3 24h68c-4.36 4.65-12.11 7.21-18 9.6l-25 10.26-15 6.13c-1.85.78-4.83 1.78-6.07 3.51-1.25 2.06-.31 5.19 0 7.5l1.07 17h93l-1.83 24c-.29 3 .26 8.38-1.19 10.78-1.94 3.19-10.34 5.03-13.98 6.08l-15 4.3c-4.35.46-16.19-3.4-21-4.74-2.2-.61-7.13-1.68-8.85-2.72-5.98-3.61-2.61-16.68-5.32-20.13-1.36-1.72-3.87-1.53-5.83-1.57h-18l2.58 29 1.44 9.44 6.98 3.14 17 5 29 8.05 18-4.63 36-10 3.17-37 2.92-34 .91-10h-62c4.54-4.53 11.18-5.86 17-8.2l31-13.38c3-1.3 14.53-5.81 15.98-7.92 1.29-1.87.95-5.26 1.11-7.5l.91-16H183z"/>
</svg>

<?xml version="1.0" encoding="UTF-8" standalone="no"?>
<!DOCTYPE svg PUBLIC "-//W3C//DTD SVG 20010904//EN"
              "http://www.w3.org/TR/2001/REC-SVG-20010904/DTD/svg10.dtd">

<svg xmlns="http://www.w3.org/2000/svg"
     width="1.66667in" height="1.66667in"
     viewBox="0 0 500 500">
       <circle cx="220" cy="220" r="200" fill="white" />
  <path id="Seleção"
        fill="#379ad6" 
        d="M 249.00,0.80
           C 249.00,0.80 236.00,0.80 236.00,0.80
             216.34,1.03 185.56,8.25 167.00,15.05
             96.86,40.77 45.53,90.68 17.80,160.00
             9.39,181.02 1.04,213.40 0.86,236.00
             0.86,236.00 0.86,250.00 0.86,250.00
             0.86,250.00 0.86,264.00 0.86,264.00
             1.03,283.65 8.06,313.39 14.69,332.00
             39.87,402.68 90.54,454.34 160.00,482.20
             180.79,490.54 212.63,498.73 235.00,499.00
             235.00,499.00 263.00,499.00 263.00,499.00
             291.90,498.95 331.18,487.57 357.00,474.75
             389.17,458.78 405.46,447.29 430.42,421.17
             430.42,421.17 443.58,407.00 443.58,407.00
             461.13,385.58 474.24,360.77 484.19,335.00
             491.31,316.56 498.77,284.69 499.00,265.00
             499.23,244.94 499.44,226.87 495.74,207.00
             483.70,142.33 447.61,84.74 394.00,46.43
             385.12,40.08 371.85,32.68 362.00,27.75
             324.48,8.99 290.85,0.93 249.00,0.80 Z
           M 220.00,98.00
           C 220.00,98.00 220.00,115.00 220.00,115.00
             220.00,115.00 202.00,115.00 202.00,115.00
             202.00,115.00 202.00,126.00 202.00,126.00
             202.00,126.00 220.00,126.00 220.00,126.00
             220.00,126.00 220.00,141.00 220.00,141.00
             220.00,141.00 192.00,141.00 192.00,141.00
             185.94,140.88 185.12,140.06 185.00,134.00
             185.00,134.00 185.00,98.00 185.00,98.00
             185.00,98.00 220.00,98.00 220.00,98.00 Z
           M 268.00,115.00
           C 268.00,115.00 257.00,115.00 257.00,115.00
             257.00,115.00 264.85,123.00 264.85,123.00
             265.99,124.34 266.78,125.32 267.40,127.00
             268.33,129.51 268.66,138.19 266.40,139.98
             265.06,141.04 262.62,140.97 261.00,141.00
             261.00,141.00 233.00,141.00 233.00,141.00
             233.00,141.00 233.00,126.00 233.00,126.00
             233.00,126.00 244.00,126.00 244.00,126.00
             244.00,126.00 232.91,115.91 232.91,115.91
             232.91,115.91 233.00,98.00 233.00,98.00
             233.00,98.00 261.00,98.00 261.00,98.00
             261.00,98.00 268.18,98.09 268.18,98.09
             268.18,98.09 268.00,115.00 268.00,115.00 Z
           M 315.49,98.13
           C 315.49,98.13 315.49,115.13 315.49,115.13
             315.49,115.13 304.49,115.13 304.49,115.13
             304.49,115.13 312.34,123.13 312.34,123.13
             313.48,124.48 315.27,125.91 315.89,127.59
             314.58,130.77 316.13,138.59 314.89,140.57
             313.55,141.62 310.11,141.10 308.49,141.13
             308.49,141.13 280.49,141.13 280.49,141.13
             280.49,141.13 280.49,126.13 280.49,126.13
             280.49,126.13 292.49,126.13 292.49,126.13
             292.49,126.13 280.40,115.41 280.40,115.41
             280.40,115.41 280.49,98.13 280.49,98.13
             280.49,98.13 315.49,98.13 315.49,98.13 Z
           M 358.00,158.00
           C 358.00,158.00 353.17,215.00 353.17,215.00
             353.17,215.00 342.83,327.00 342.83,327.00
             342.83,327.00 339.83,358.00 339.83,358.00
             339.83,358.00 338.00,378.00 338.00,378.00
             338.00,378.00 277.00,394.42 277.00,394.42
             277.00,394.42 250.00,400.92 250.00,400.92
             250.00,400.92 223.00,394.42 223.00,394.42
             223.00,394.42 162.00,378.00 162.00,378.00
             162.00,378.00 160.17,359.00 160.17,359.00
             160.17,359.00 157.17,327.00 157.17,327.00
             157.17,327.00 146.83,215.00 146.83,215.00
             146.83,215.00 143.83,183.00 143.83,183.00
             143.83,183.00 142.00,158.00 142.00,158.00
             142.00,158.00 358.00,158.00 358.00,158.00 Z
           M 183.00,204.00
           C 183.00,204.00 186.00,228.00 186.00,228.00
             186.00,228.00 254.00,228.00 254.00,228.00
             249.64,232.65 241.89,235.21 236.00,237.60
             236.00,237.60 211.00,247.86 211.00,247.86
             211.00,247.86 196.00,253.99 196.00,253.99
             194.15,254.77 191.17,255.77 189.93,257.50
             188.68,259.56 189.62,262.69 189.93,265.00
             189.93,265.00 191.00,282.00 191.00,282.00
             191.00,282.00 284.00,282.00 284.00,282.00
             284.00,282.00 282.17,306.00 282.17,306.00
             281.88,309.00 282.43,314.38 280.98,316.78
             279.04,319.97 270.64,321.81 267.00,322.86
             267.00,322.86 252.00,327.16 252.00,327.16
             247.65,327.62 235.81,323.76 231.00,322.42
             228.80,321.81 223.87,320.74 222.15,319.70
             216.17,316.09 219.54,303.02 216.83,299.57
             215.47,297.85 212.96,298.04 211.00,298.00
             211.00,298.00 193.00,298.00 193.00,298.00
             193.00,298.00 195.58,327.00 195.58,327.00
             195.58,327.00 197.02,336.44 197.02,336.44
             197.02,336.44 204.00,339.58 204.00,339.58
             204.00,339.58 221.00,344.58 221.00,344.58
             221.00,344.58 250.00,352.63 250.00,352.63
             250.00,352.63 268.00,348.00 268.00,348.00
             268.00,348.00 304.00,338.00 304.00,338.00
             304.00,338.00 307.17,301.00 307.17,301.00
             307.17,301.00 310.09,267.00 310.09,267.00
             310.09,267.00 311.00,257.00 311.00,257.00
             311.00,257.00 249.00,257.00 249.00,257.00
             253.54,252.47 260.18,251.14 266.00,248.80
             266.00,248.80 297.00,235.42 297.00,235.42
             300.00,234.12 311.53,229.61 312.98,227.50
             314.27,225.63 313.93,222.24 314.09,220.00
             314.09,220.00 315.00,204.00 315.00,204.00
             315.00,204.00 183.00,204.00 183.00,204.00 Z" />
</svg>
